X: 11335
T: Eamon Marshall's
R: slide
M: 12/8
K: Dmajor
|:ABA AFA d2A F2G|A2G EDE B2A F2G|
ABA AFA d2A F2E|EDE F2E D3 D3:|
|:B|A2d dcd fed e2d|BdB A2d B2A F2G|
A2d dcd fed e2B|A2F EFE D3 D2:|

